recipes/chatwork/icon.svg

<svg height="80" viewBox="0 0 80 80" width="80" xmlns="http://www.w3.org/2000/svg"><g fill="none"><path d="m62.3276594 4.69260532c-4.4995905-4.50100472-11.2407073-5.91042498-17.1689545-3.58965329-5.9282471 2.32077169-9.9169009 7.93064911-10.1587049 14.28780017v15.1584512c0 .7908197.641619 1.4319058 1.4330961 1.4319058h13.8697343c4.4875788.2189705 8.8576015-1.4737546 12.024829-4.6578086 6.2297875-6.2594968 6.2297875-16.3711984 0-22.63069528z" fill="#13202f"/><path d="m4.68798259 16.7555167c-4.49657074 4.5796914-5.90460256 11.4408123-3.58611709 17.4745929 2.31848547 6.0337807 7.92283654 10.0934398 14.2737251 10.3395483h15.1599609c.3778964 0 .7400807-.1541811 1.0057448-.428216.2656641-.2740348.4127021-.6450948.408308-1.0303917v-14.1166407c.2229472-4.568157-1.468749-9.0176538-4.6532201-12.2388928-6.2533306-6.3406889-16.3550711-6.3406889-22.60840161 0zm12.23320051 58.5119668c4.4933401 4.5491131 11.1969163 5.9643433 17.0923579 3.6084652 5.8954415-2.3558781 9.8709017-8.0385593 10.1363789-14.4893438v-15.4578893c0-.3853229-.1512096-.7546249-.4199628-1.02551-.2687532-.270885-.6326616-.4208126-1.0105324-.4163321h-13.7952356c-4.4801124-.2273287-8.8438517 1.4976132-12.003006 4.7446666-6.2165767 6.3704842-6.2165767 16.6654593 0 23.0359434zm57.3842339-12.4065488c4.4993183-4.5732381 5.9113821-11.4312791 3.5956994-17.4634133-2.3156828-6.0321343-7.9184102-10.0903751-14.266865-10.3339624h-15.1599609c-.7836638 0-1.4214876.6428304-1.4304952 1.4418422v14.1166407c-.2249825 4.571739 1.4738053 9.0241553 4.6696626 12.2388928 6.2402327 6.3571727 16.3517263 6.3571727 22.5919591 0z" fill="#f03748"/></g></svg>

<?xml version="1.0" encoding="UTF-8"?>
<svg width="80px" height="80px" viewBox="0 0 80 80" version="1.1" xmlns="http://www.w3.org/2000/svg" xmlns:xlink="http://www.w3.org/1999/xlink">
    <!-- Generator: Sketch 55.1 (78136) - https://sketchapp.com -->
    <title>chatwork</title>
    <desc>Created with Sketch.</desc>
    <g id="chatwork" stroke="none" stroke-width="1" fill="none" fill-rule="evenodd">
        <g id="Group" fill-rule="nonzero">
            <path d="M62.3276594,4.69260532 C57.8280689,0.191600596 51.0869521,-1.21781966 45.1587049,1.10295203 C39.2304578,3.42372372 35.241804,9.03360114 35,15.3907522 L35,30.5492034 C35,31.3400231 35.641619,31.9811092 36.4330961,31.9811092 L50.3028304,31.9811092 C54.7904092,32.2000797 59.1604319,30.5073546 62.3276594,27.3233006 C68.5574469,21.0638038 68.5574469,10.9521022 62.3276594,4.69260532 L62.3276594,4.69260532 Z" id="Path" fill="#13202F"></path>
            <path d="M4.68798259,16.7555167 C0.191411848,21.3352081 -1.21661997,28.196329 1.1018655,34.2301096 C3.42035097,40.2638903 9.02470204,44.3235494 15.3755906,44.5696579 L30.5355515,44.5696579 C30.9134479,44.5696579 31.2756322,44.4154768 31.5412963,44.1414419 C31.8069604,43.8674071 31.9539984,43.4963471 31.9496043,43.1110502 L31.9496043,28.9944095 C32.1725515,24.4262525 30.4808553,19.9767557 27.2963842,16.7555167 C21.0430536,10.4148278 10.9413131,10.4148278 4.68798259,16.7555167 L4.68798259,16.7555167 Z M16.9211831,75.2674835 C21.4145232,79.8165966 28.1180994,81.2318268 34.013541,78.8759487 C39.9089825,76.5200706 43.8844427,70.8373894 44.1499199,64.3866049 L44.1499199,48.9287156 C44.1499199,48.5433927 43.9987103,48.1740907 43.7299571,47.9032056 C43.4612039,47.6323206 43.0972955,47.482393 42.7194247,47.4868735 L28.9241891,47.4868735 C24.4440767,47.2595448 20.0803374,48.9844867 16.9211831,52.2315401 C10.7046064,58.6020243 10.7046064,68.8969994 16.9211831,75.2674835 L16.9211831,75.2674835 Z M74.305417,62.8609347 C78.8047353,58.2876966 80.2167991,51.4296556 77.9011164,45.3975214 C75.5854336,39.3653871 69.9827062,35.3071463 63.6342514,35.063559 L48.4742905,35.063559 C47.6906267,35.063559 47.0528029,35.7063894 47.0437953,36.5054012 L47.0437953,50.6220419 C46.8188128,55.1937809 48.5176006,59.6461972 51.7134579,62.8609347 C57.9536906,69.2181074 68.0651842,69.2181074 74.305417,62.8609347 L74.305417,62.8609347 Z" id="Shape" fill="#F03748"></path>
        </g>
    </g>
</svg>
